X: 1
T: Up In The Garret
M: 9/8
L: 1/8
R: slip jig
K: Ador
|:dcB ABE A3|dcB ABA efg|dcB ABG A2 e|dBG GAG Bcd:|
|:BAB e2 d e3|ABB e2 d efg|BAB e2 d efe|dBG GAG Bcd:|
